X: 20053
Q: "With spirit."
M: 6/8
L: 1/8
K: Bb
b2g a2f | gab fed | cde GcB | AGA FGA |
bag agf | gfe fed | b3  f2e | d2c B2  |]
b2g a2f | gab fed | b3  f2e | d2c B2  |]


